X:103
M:46/8
L:1/8
Q:3/8=100
K:D
f>ef d2 A|(B>cd) (e>fg)| A>Bc d2 A|B2 B A>GA|\
d2 d (d>ef)| d3-d2 A/A/|(B>cd) (e>fg)| A>Bc d2 A/A/| B2 G A2 A|D3-D2:|

